assets/images/homework.svg

<svg width="55" height="53" viewBox="0 0 55 53" fill="none" xmlns="http://www.w3.org/2000/svg">
<path d="M39.7596 24.6534C39.7596 21.0866 39.7596 15.8303 39.7596 12.0758C36.1847 8.3213 32.4216 4.75451 28.8467 1H1V51.1227H39.7596C39.7596 45.6787 39.7596 38.7329 39.7596 33.2888" stroke="#FD6709" stroke-width="2" stroke-miterlimit="10" stroke-linecap="round" stroke-linejoin="round"/>
<path d="M39.007 12.4513H28.0941V1.18774" stroke="#FD6709" stroke-width="2" stroke-miterlimit="10" stroke-linecap="round" stroke-linejoin="round"/>
<path d="M5.70386 8.32129H23.5784" stroke="#FD6709" stroke-width="2" stroke-miterlimit="10" stroke-linecap="round" stroke-linejoin="round"/>
<path d="M5.70386 14.3285H23.5784" stroke="#FD6709" stroke-width="2" stroke-miterlimit="10" stroke-linecap="round" stroke-linejoin="round"/>
<path d="M5.70386 20.7112H35.0558" stroke="#FD6709" stroke-width="2" stroke-miterlimit="10" stroke-linecap="round" stroke-linejoin="round"/>
<path d="M5.70386 26.9061H17.3694" stroke="#FD6709" stroke-width="2" stroke-miterlimit="10" stroke-linecap="round" stroke-linejoin="round"/>
<path d="M40.5122 24.4657L48.0383 16.9567L48.4146 16.5812C49.3554 15.6426 51.0488 15.6426 52.1777 16.5812C53.3066 17.7076 53.3066 19.3971 52.1777 20.3357L44.4634 28.0325L40.5122 32.1625L32.6097 40.2347C32.4216 40.4224 32.2334 40.4224 32.2334 40.2347L28.8467 36.8556C28.6585 36.6679 28.6585 36.4801 28.8467 36.4801L36.7491 28.5957L40.5122 24.4657Z" stroke="#FD6709" stroke-width="2" stroke-miterlimit="10"/>
<path d="M51.9895 20.8989L48.2264 17.1444" stroke="#FD6709" stroke-width="2" stroke-miterlimit="10"/>
<path d="M50.6724 22.0253L47.0975 18.4585" stroke="#FD6709" stroke-width="2" stroke-miterlimit="10"/>
<path d="M30.3518 38.3574L38.8187 30.0975L42.5818 26.1552L48.7908 20.148" stroke="#FD6709" stroke-width="2" stroke-miterlimit="10"/>
<path d="M28.6585 36.2924L27.3414 41.7365L32.6097 40.2347" stroke="#FD6709" stroke-width="2" stroke-miterlimit="10" stroke-linejoin="round"/>
</svg>

<svg width="55" height="53" fill="none" xmlns="http://www.w3.org/2000/svg"><path d="M39.76 24.653V12.076C36.185 8.32 32.422 4.755 28.847 1H1v50.123h38.76V33.289" stroke="#FD6709" stroke-width="2" stroke-miterlimit="10" stroke-linecap="round" stroke-linejoin="round"/><path d="M39.007 12.451H28.094V1.188M5.704 8.321h17.874M5.704 14.329h17.874M5.704 20.711h29.352M5.704 26.906h11.665" stroke="#FD6709" stroke-width="2" stroke-miterlimit="10" stroke-linecap="round" stroke-linejoin="round"/><path d="M40.512 24.466l7.526-7.51.377-.375c.94-.938 2.634-.938 3.763 0 1.129 1.127 1.129 2.816 0 3.755l-7.715 7.697-3.95 4.13-7.903 8.072c-.188.187-.377.187-.377 0l-3.386-3.38c-.189-.187-.189-.375 0-.375l7.902-7.884 3.763-4.13zm11.478-3.567l-3.764-3.755m2.446 4.881l-3.575-3.566" stroke="#FD6709" stroke-width="2" stroke-miterlimit="10"/><path d="M30.352 38.357l8.467-8.26 3.763-3.942 6.209-6.007" stroke="#FD6709" stroke-width="2" stroke-miterlimit="10"/><path d="M28.659 36.292l-1.318 5.444 5.269-1.501" stroke="#FD6709" stroke-width="2" stroke-miterlimit="10" stroke-linejoin="round"/></svg>
